build/assets/header-cart.svg

<svg width="32" height="38" viewBox="0 0 32 38" fill="none" xmlns="http://www.w3.org/2000/svg">
<g clip-path="url(#clip0_5_19)">
<path d="M8 8.71436C8 4.29578 11.5786 0.714355 16 0.714355C20.4214 0.714355 24 4.29578 24 8.71436V12.1429H28.5714C30.4643 12.1429 32 13.6786 32 15.5715V30.4286C32 34.2144 28.9286 37.2858 25.1429 37.2858H6.85714C3.07 37.2858 0 34.2144 0 30.4286V15.5715C0 13.6786 1.535 12.1429 3.42857 12.1429H8V8.71436ZM11.4286 12.1429H20.5714V8.71436C20.5714 6.18936 18.5214 4.14293 16 4.14293C13.4786 4.14293 11.4286 6.18936 11.4286 8.71436V12.1429ZM9.71429 19.0001C10.6643 19.0001 11.4286 18.2358 11.4286 17.2858C11.4286 16.3358 10.6643 15.5715 9.71429 15.5715C8.76429 15.5715 8 16.3358 8 17.2858C8 18.2358 8.76429 19.0001 9.71429 19.0001ZM22.2857 15.5715C21.3357 15.5715 20.5714 16.3358 20.5714 17.2858C20.5714 18.2358 21.3357 19.0001 22.2857 19.0001C23.2357 19.0001 24 18.2358 24 17.2858C24 16.3358 23.2357 15.5715 22.2857 15.5715Z" fill="white"/>
</g>
<defs>
<clipPath id="clip0_5_19">
<rect width="32" height="36.5714" fill="white" transform="translate(0 0.714355)"/>
</clipPath>
</defs>
</svg>

<svg xmlns="http://www.w3.org/2000/svg" width="32" height="38" fill="none"><g clip-path="url(#a)"><path fill="#fff" d="M8 8.714c0-4.418 3.579-8 8-8 4.421 0 8 3.582 8 8v3.429h4.571A3.43 3.43 0 0 1 32 15.57V30.43a6.859 6.859 0 0 1-6.857 6.857H6.857A6.858 6.858 0 0 1 0 30.429V15.572a3.429 3.429 0 0 1 3.429-3.43H8V8.715Zm3.429 3.429h9.142V8.714A4.573 4.573 0 0 0 16 4.143a4.573 4.573 0 0 0-4.571 4.571v3.429ZM9.714 19a1.71 1.71 0 0 0 1.715-1.714 1.71 1.71 0 0 0-1.715-1.715A1.71 1.71 0 0 0 8 17.287C8 18.236 8.764 19 9.714 19Zm12.572-3.428a1.71 1.71 0 0 0-1.715 1.714c0 .95.765 1.714 1.715 1.714A1.71 1.71 0 0 0 24 17.286a1.71 1.71 0 0 0-1.714-1.715Z"/></g><defs><clipPath id="a"><path fill="#fff" d="M0 .714h32v36.571H0z"/></clipPath></defs></svg>
